X:17
T: Der himmlische Ackersmann
N: D0018
O: Europa, Mitteleuropa, Lothringen, Weiler
N: Inzipit = Variante zum Lied; Verzierungen
R: geistliches Lied
M: 3/4
L: 1/8
K: E
=GE | E2E2E2 | B2B2A2 | B4A2 | =G4
A2 | A4B2 | =c2B2A2 | =G2E2F2 | E4z2
A6 | =G2F2E2 | =D4
D2 | =G2G2A2 | B2B2A2 | =G2E2F2 | E4z2

